X:221
T: IN DES GARTENS DUNKLER LAUBE
N: E0112B
O: Europa, Mitteleuropa, Deutschland, Lahn - Gebiet
R: erzaehlendes Volks - Lied, Sage, Liebe, Leid, Tod
M: 3/4
L: 1/8
K: Bb
FE | DFB2FE | DFB2
BB | A3GFE | D4
DD | Feeedc | cBB2
BB | AGd2c2 | B4

@@@ Tune index: 3871
